src/pos-icons/align-vertical-bottom.svg

<svg height="24" viewBox="0 0 24 24" width="24" xmlns="http://www.w3.org/2000/svg"><path d="m11 18h-6v-16h6zm8-10h-6v10h6zm3 12h-20v2h20z"/></svg>

<?xml version="1.0" encoding="UTF-8"?><!DOCTYPE svg PUBLIC "-//W3C//DTD SVG 1.1//EN" "http://www.w3.org/Graphics/SVG/1.1/DTD/svg11.dtd"><svg xmlns="http://www.w3.org/2000/svg" xmlns:xlink="http://www.w3.org/1999/xlink" version="1.1" id="mdi-align-vertical-bottom" width="24" height="24" viewBox="0 0 24 24"><path d="M11 18H5V2H11V18M19 8H13V18H19V8M22 20H2V22H22V20Z" /></svg>
